X:470
T:Gan Ainm (Miss McLeods)
R:Reel
S:Maire O'Keeffe, Kerry (fiddle)
D:Session tape - Milltown Malbay 1991
N:As played
Z:Bernie Stocks
M:4/4
K:D
D3B ADFA | dAcA {d}BAFE | D3B ADFA | dA{d}BA ~E3F |D3B ADFA | d3D3A BAFA |
{d}B2dB {d}BAFA |1 dBAF (3.E.E.ECE :|2 dBAF E2(3.A.B.c || d2Df-eA{d}BA |
d3D3A BAFA | ~d3f {a}fedf | ~a3f gefe | df~f2 eAce | d2(3.A.A.d BAFA |
~B2dB {d}BAFA |1 dBAF E2(3.A.B.c :|2 dBAF (3.E.E.ECE || D4
